packages/kaspersky-hexa-ui-icons/src/iconsSVGs/16/Yandex2Color1.svg

<svg width="16" height="16" viewBox="0 0 16 16" fill="none" xmlns="http://www.w3.org/2000/svg">
<path d="M15 8C15 11.866 11.866 15 8 15C4.13401 15 1 11.866 1 8C1 4.13401 4.13401 1 8 1C11.866 1 15 4.13401 15 8Z" fill="#FC3F1D"/>
<path d="M8.30297 8.72887C8.72924 9.66256 8.8713 9.98733 8.8713 11.1088V12.5956H7.34897V10.0888L4.47686 3.84217H6.06515L8.30297 8.72887ZM10.1805 3.84217L8.31821 8.07428H9.86591L11.7333 3.84217H10.1805Z" fill="white"/>
</svg>

<svg xmlns="http://www.w3.org/2000/svg" width="16" height="16" fill="none" viewBox="0 0 16 16"><path fill="#fc3f1d" d="M15 8c0 3.866-3.134 7-7 7s-7-3.134-7-7 3.134-7 7-7 7 3.134 7 7"/><path fill="#fff" d="M8.303 8.7289c.4262.9337.5683 1.2584.5683 2.3799v1.4868H7.349v-2.5068L4.4769 3.8422h1.5883zm1.8775-4.8867-1.8623 4.232H9.866l1.8674-4.232z"/></svg>
